!!!Xfilter:transpose -t P8
!!!OTL: 1345. Husarenlied.
!!!ARE: Europa, Mitteleuropa, Deutschland, Goettingen
!!!SCT: E1345
!!!TXL: @@DE
!!!YEM: Copyright 1995, estate of Helmut Schaffrath.
**kern	**text
*ICvox	*
*M2/4	*
*k[]	*
*C:	*
!LO:TX:a:t=Aus der Gegend von Göttingen (um 1820). Nach Prof. Bouterweks Hdſchr.	!
{8g	Es
=1	=1
8.cc	iſt
16g	nichts
8e	Schön-
8g	-res
=2	=2
8cc	auf
8cc	der
8cc}	Welt
{8ee	und
=3	=3
8.dd	kann
16cc	nichts
8b	Schöners
8a	.
=4	=4
4g	ſein,
8r}	.
{8g	als
=5	=5
8dd	wir
8dd	Sol-
8dd	-da-
16ccL	-ten
16ddJ	.
=6	=6
8ee	in
8ee	dem
8ee}	Feld,
{16ddL	wenn
16eeJ	.
=7	=7
8ff	wir
8dd	in
8cc	Ba-
8b	-talje
=8	=8
4cc	gehn.
8r;}	.
{8g	als
=9	=9
8dd	wir
8dd	Sol-
8dd	-da-
16ccL	-ten
16ddJ	.
=10	=10
8ee	in
8ee	dem
8ee}	Feld,
{16ddL	wenn
16eeJ	.
=11	=11
8ff	wir
8dd	in
8cc	Ba-
8b	-talje
=12	=12
4cc	gehn.
8r;}	.
==	==
!!!AGN: Staende -, Soldaten -, Kriegs - Lied
!!!ONB: ESAC (Essen Associative Code) Database: ERK3
!!!AMT: simple duple
!!!AIN: vox
!!!EED: Helmut Schaffrath
!!!EEV: 1.0
!!!GTL: Staendelieder (Berufslieder). 1. Soldaten- und Kriegslieder. Soldatenlieder seit dem 30jaehr. Kriege.
!!!URL-scan: https://rosdok.uni-rostock.de/mcrviewer/recordIdentifier/rosdok_ppn745177999/iview2/phys_0227.iview2?x=-128.77276441889285&y=2082.6175080579706&scale=0.5870222003877487&rotation=0&layout=singlePageLayout
!!!ENC: Anna Maria Matuszewska
!!!EEV: 2024/12/30
*-	*-
